img/svg/responsibility-icon5.svg

<svg width="80" height="80" viewBox="0 0 80 80" fill="none" xmlns="http://www.w3.org/2000/svg">
<circle cx="40" cy="40" r="40" fill="#0055FF" fill-opacity="0.03"/>
<path fill-rule="evenodd" clip-rule="evenodd" d="M36.7515 31.535C38.8194 30.7425 41.106 30.735 43.179 31.5139C45.2521 32.2928 46.968 33.8042 48.0025 35.7623C49.0369 37.7204 49.3182 39.9897 48.7931 42.1411C48.2681 44.2925 46.9731 46.1771 45.153 47.4386C43.3328 48.7001 41.1136 49.2511 38.9148 48.9875C36.716 48.7239 34.6899 47.6639 33.2195 46.008C31.7491 44.352 30.9363 42.2147 30.9346 40.0002C30.9344 39.6093 30.6173 39.2927 30.2264 39.293C29.8356 39.2933 29.519 39.6104 29.5193 40.0012C29.5211 42.5618 30.461 45.033 32.1611 46.9477C33.8613 48.8625 36.2039 50.088 38.7463 50.3928C41.2887 50.6976 43.8547 50.0605 45.9592 48.6019C48.0638 47.1433 49.5611 44.9643 50.1682 42.4767C50.7752 39.9891 50.45 37.3653 49.2539 35.1012C48.0579 32.8371 46.0738 31.0896 43.6769 30.189C41.2799 29.2884 38.636 29.297 36.245 30.2134C33.8539 31.1297 31.8814 32.8901 30.7002 35.162C30.5199 35.5088 30.6549 35.9361 31.0017 36.1164C31.3484 36.2967 31.7757 36.1617 31.956 35.8149C32.9776 33.8501 34.6835 32.3275 36.7515 31.535Z" fill="#2093FF"/>
<path fill-rule="evenodd" clip-rule="evenodd" d="M39.9993 52.0737C39.6085 52.0737 39.2917 52.3906 39.2917 52.7814V57.2922C39.2917 57.6831 39.6085 57.9999 39.9993 57.9999C40.3902 57.9999 40.707 57.6831 40.707 57.2922V52.7814C40.707 52.3906 40.3902 52.0737 39.9993 52.0737Z" fill="#2093FF"/>
<path fill-rule="evenodd" clip-rule="evenodd" d="M39.9993 22C39.6085 22 39.2917 22.3168 39.2917 22.7077V27.2185C39.2917 27.6093 39.6085 27.9262 39.9993 27.9262C40.3902 27.9262 40.707 27.6093 40.707 27.2185V22.7077C40.707 22.3168 40.3902 22 39.9993 22Z" fill="#2093FF"/>
<path fill-rule="evenodd" clip-rule="evenodd" d="M39.9993 34.0293C39.6085 34.0293 39.2917 34.3461 39.2917 34.737V37.7446C39.2917 38.1355 39.6085 38.4523 39.9993 38.4523C40.3902 38.4523 40.707 38.1355 40.707 37.7446V34.737C40.707 34.3461 40.3902 34.0293 39.9993 34.0293Z" fill="#2093FF"/>
<path fill-rule="evenodd" clip-rule="evenodd" d="M27.9258 40.0009C27.9258 39.6101 27.6089 39.2932 27.2181 39.2932H22.7073C22.3165 39.2932 21.9996 39.6101 21.9996 40.0009C21.9996 40.3917 22.3165 40.7086 22.7073 40.7086H27.2181C27.6089 40.7086 27.9258 40.3917 27.9258 40.0009Z" fill="#2093FF"/>
<path fill-rule="evenodd" clip-rule="evenodd" d="M58 40.0009C58 39.6101 57.6832 39.2932 57.2923 39.2932H52.7815C52.3907 39.2932 52.0738 39.6101 52.0738 40.0009C52.0738 40.3917 52.3907 40.7086 52.7815 40.7086H57.2923C57.6832 40.7086 58 40.3917 58 40.0009Z" fill="#2093FF"/>
<path fill-rule="evenodd" clip-rule="evenodd" d="M33.9643 50.456C33.6258 50.2606 33.193 50.3766 32.9976 50.7151L30.7429 54.6216C30.5476 54.9601 30.6636 55.3929 31.0021 55.5882C31.3406 55.7836 31.7734 55.6676 31.9688 55.3291L34.2235 51.4227C34.4189 51.0841 34.3028 50.6513 33.9643 50.456Z" fill="#2093FF"/>
<path fill-rule="evenodd" clip-rule="evenodd" d="M48.9995 24.4118C48.661 24.2164 48.2282 24.3324 48.0328 24.6709L45.7781 28.5774C45.5827 28.9159 45.6988 29.3487 46.0373 29.544C46.3758 29.7394 46.8086 29.6234 47.0039 29.2849L49.2586 25.3785C49.454 25.04 49.338 24.6072 48.9995 24.4118Z" fill="#2093FF"/>
<path fill-rule="evenodd" clip-rule="evenodd" d="M29.5438 46.0371C29.3484 45.6986 28.9156 45.5826 28.5771 45.778L24.6707 48.0327C24.3322 48.2281 24.2161 48.6609 24.4115 48.9994C24.6069 49.3379 25.0397 49.4539 25.3782 49.2585L29.2846 47.0038C29.6231 46.8085 29.7392 46.3757 29.5438 46.0371Z" fill="#2093FF"/>
<path fill-rule="evenodd" clip-rule="evenodd" d="M55.5887 31.0005C55.3933 30.662 54.9605 30.546 54.622 30.7414L50.7156 32.9961C50.3771 33.1914 50.2611 33.6242 50.4564 33.9627C50.6518 34.3012 51.0846 34.4173 51.4231 34.2219L55.3296 31.9672C55.6681 31.7718 55.7841 31.339 55.5887 31.0005Z" fill="#2093FF"/>
<path fill-rule="evenodd" clip-rule="evenodd" d="M46.0373 50.456C45.6988 50.6513 45.5827 51.0841 45.7781 51.4227L48.0328 55.3291C48.2282 55.6676 48.661 55.7836 48.9995 55.5882C49.338 55.3929 49.454 54.9601 49.2586 54.6216L47.0039 50.7151C46.8086 50.3766 46.3758 50.2606 46.0373 50.456Z" fill="#2093FF"/>
<path fill-rule="evenodd" clip-rule="evenodd" d="M31.0021 24.4118C30.6636 24.6072 30.5476 25.04 30.7429 25.3785L32.9976 29.2849C33.193 29.6234 33.6258 29.7394 33.9643 29.544C34.3028 29.3487 34.4189 28.9159 34.2235 28.5774L31.9688 24.6709C31.7734 24.3324 31.3406 24.2164 31.0021 24.4118Z" fill="#2093FF"/>
<path fill-rule="evenodd" clip-rule="evenodd" d="M50.4564 46.0371C50.2611 46.3757 50.3771 46.8085 50.7156 47.0038L54.622 49.2585C54.9605 49.4539 55.3933 49.3379 55.5887 48.9994C55.7841 48.6609 55.6681 48.2281 55.3296 48.0327L51.4231 45.778C51.0846 45.5826 50.6518 45.6986 50.4564 46.0371Z" fill="#2093FF"/>
<path fill-rule="evenodd" clip-rule="evenodd" d="M24.4115 31.0005C24.2161 31.339 24.3322 31.7718 24.6707 31.9672L28.5771 34.2219C28.9156 34.4173 29.3484 34.3012 29.5438 33.9627C29.7392 33.6242 29.6231 33.1914 29.2846 32.9961L25.3782 30.7414C25.0397 30.546 24.6069 30.662 24.4115 31.0005Z" fill="#2093FF"/>
<path fill-rule="evenodd" clip-rule="evenodd" d="M42.4786 36.1731C42.218 36.4644 42.2428 36.9118 42.5341 37.1724C43.1081 37.6859 43.5126 38.3616 43.6942 39.1101C43.8758 39.8585 43.8258 40.6445 43.551 41.364C43.2761 42.0834 42.7893 42.7025 42.1549 43.1392C41.5205 43.5759 40.7685 43.8098 39.9983 43.8098C39.2281 43.8098 38.4761 43.5759 37.8417 43.1392C37.2074 42.7025 36.7205 42.0834 36.4457 41.364C36.1708 40.6445 36.1208 39.8585 36.3024 39.1101C36.484 38.3616 36.8885 37.6859 37.4625 37.1724C37.7538 36.9118 37.7787 36.4644 37.5181 36.1731C37.2575 35.8818 36.8101 35.8569 36.5188 36.1175C35.7312 36.8222 35.1761 37.7494 34.9269 38.7764C34.6778 39.8034 34.7463 40.8819 35.1235 41.8691C35.5007 42.8563 36.1687 43.7057 37.0391 44.305C37.9096 44.9043 38.9415 45.2251 39.9983 45.2251C41.0551 45.2251 42.087 44.9043 42.9575 44.305C43.828 43.7057 44.496 42.8563 44.8731 41.8691C45.2503 40.8819 45.3188 39.8034 45.0697 38.7764C44.8205 37.7494 44.2654 36.8222 43.4778 36.1175C43.1866 35.8569 42.7392 35.8818 42.4786 36.1731Z" fill="#2093FF"/>
</svg>

<svg width="80" height="80" viewBox="0 0 80 80" fill="none" xmlns="http://www.w3.org/2000/svg"><circle cx="40" cy="40" r="40" fill="#05F" fill-opacity=".03"/><path fill-rule="evenodd" clip-rule="evenodd" d="M36.752 31.535A9.058 9.058 0 1130.934 40a.708.708 0 10-1.416.001 10.473 10.473 0 101.181-4.839.708.708 0 001.256.653 9.059 9.059 0 014.796-4.28zM40 52.074a.708.708 0 00-.708.707v4.511a.708.708 0 101.415 0v-4.51a.708.708 0 00-.708-.708zM40 22a.708.708 0 00-.708.708v4.51a.708.708 0 101.415 0v-4.51a.708.708 0 00-.708-.708z" fill="#2093FF"/><path fill-rule="evenodd" clip-rule="evenodd" d="M40 34.03a.708.708 0 00-.708.707v3.008a.708.708 0 101.415 0v-3.008a.708.708 0 00-.708-.708zM27.926 40a.708.708 0 00-.708-.707h-4.51a.708.708 0 000 1.416h4.51c.39 0 .708-.317.708-.708zM58 40a.708.708 0 00-.708-.707h-4.51a.708.708 0 000 1.416h4.51a.708.708 0 00.708-.708zM33.964 50.456a.708.708 0 00-.966.26l-2.255 3.906a.708.708 0 001.226.707l2.255-3.906a.708.708 0 00-.26-.967zM49 24.412a.708.708 0 00-.967.259l-2.255 3.906a.708.708 0 101.226.708l2.255-3.907a.708.708 0 00-.26-.966zM29.544 46.037a.708.708 0 00-.967-.259l-3.906 2.255a.708.708 0 10.707 1.225l3.907-2.254a.708.708 0 00.259-.967zM55.589 31a.708.708 0 00-.967-.259l-3.906 2.255a.708.708 0 10.707 1.226l3.907-2.255a.708.708 0 00.259-.966zm-9.552 19.456a.708.708 0 00-.259.967l2.255 3.906a.708.708 0 001.226-.707l-2.255-3.907a.708.708 0 00-.967-.259zM31.002 24.412a.708.708 0 00-.26.966l2.256 3.907a.708.708 0 001.226-.708l-2.255-3.906a.708.708 0 00-.967-.26zm19.454 21.625a.708.708 0 00.26.967l3.906 2.255a.708.708 0 10.708-1.226l-3.907-2.255a.708.708 0 00-.967.26zM24.412 31a.708.708 0 00.259.967l3.906 2.255a.708.708 0 00.708-1.226l-3.907-2.255a.708.708 0 00-.966.26z" fill="#2093FF"/><path fill-rule="evenodd" clip-rule="evenodd" d="M42.479 36.173a.708.708 0 00.055 1 3.803 3.803 0 11-5.072 0 .708.708 0 10-.943-1.056 5.22 5.22 0 106.959 0 .708.708 0 00-1 .056z" fill="#2093FF"/></svg>
